!!!OTL: Renma wangxikai
!!!ARE: Asia, China,ÿAnhui Haoxian
!! III, 554
!!!SCT: C2057
!!!YEM: Copyright 1995, estate of Helmut Schaffrath.
**kern
*ICvox
*Ivox
*M2/4
*k[f#c#g#]
*A:
{8cc#
8ee
8cc#
8b
=1
8cc#
8ee
8cc#
8b
=2
8a
8b
8cc#
8b
=3
2a}
=4
{8a
8b
8cc#
8ee
=5
8b
16cc#
16b
4a
=6
8b
8g#
8f#
16g#
16f#
=7
2e}
=8
{8cc#
8cc#
8b
8cc#
=9
8g#
8f#
4e
=10
8cc#
8cc#
8b
8cc#
=11
8g#
8f#
4e}
=12
{8a
4a
8f#
=13
2b}
=14
{8a
8b
8cc#
16ee
16cc#
=15
8b
16cc#
16b
4a
=16
8ee
8cc#
8b
16a
16b
=17
8g#
4f#
8c#
=18
2e}
==
!!!AGN: Xiaodiao
!!!AMT: simple duple
!!!AIN: vox
!!!EED: Helmut Schaffrath
!!!EEV: 1.0
*-
